packages/react-icons/icons/grow.svg

<svg width="24" height="24" viewBox="0 0 24 24" xmlns="http://www.w3.org/2000/svg"><path fill-rule="evenodd" clip-rule="evenodd" d="M13.3223 3.87994C12.8252 3.87994 12.4223 4.28289 12.4223 4.77995C12.4223 5.277 12.8253 5.67994 13.3223 5.67994L17.047 5.6799L10.0851 12.6418C10.0809 12.646 10.0768 12.6502 10.0727 12.6545L5.68037 17.0468L5.68038 13.322C5.68038 12.825 5.27743 12.422 4.78038 12.422C4.28332 12.422 3.88038 12.825 3.88038 13.322L3.88037 19.2196C3.88037 19.4583 3.97519 19.6872 4.14398 19.856C4.31276 20.0248 4.54168 20.1196 4.78038 20.1196L10.6779 20.1196C11.175 20.1196 11.5779 19.7166 11.5779 19.2195C11.5779 18.7225 11.175 18.3196 10.6779 18.3196L6.95318 18.3196L13.9151 11.3577C13.9193 11.3535 13.9234 11.3493 13.9275 11.345L18.3199 6.95268L18.3199 10.6775C18.3199 11.1745 18.7228 11.5775 19.2199 11.5775C19.7169 11.5775 20.1199 11.1745 20.1199 10.6775L20.1199 4.77988C20.1199 4.54119 20.025 4.31227 19.8563 4.14348C19.6875 3.9747 19.4585 3.87988 19.2199 3.87988L13.3223 3.87994Z"/></svg>

<svg xmlns="http://www.w3.org/2000/svg" width="24" height="24"><path fill-rule="evenodd" d="M13.322 3.88a.9.9 0 1 0 0 1.8h3.725l-6.962 6.962a.743.743 0 0 0-.012.013L5.68 17.047v-3.725a.9.9 0 0 0-1.8 0v5.898a.9.9 0 0 0 .9.9h5.898a.9.9 0 0 0 0-1.8H6.953l6.962-6.962a.743.743 0 0 0 .013-.013l4.392-4.392v3.724a.9.9 0 0 0 1.8 0V4.78a.9.9 0 0 0-.9-.9h-5.898Z" clip-rule="evenodd"/></svg>
